X:403
T: VON HAUSE MUSS ICH FORT
N: E1596
O: Europa, Mitteleuropa, Deutschland, Hessen, Darmstadt, Lerheim
R: Staende -, Handwerker -, Gesellen - Lied; Abschied, Wanderschaft
M: 4/4
L: 1/8
K: C
G,2 | C2B,A,G,2F,2 | E,2A,2G,2
G,2 | E3CE2DC | C4z2
CD | E2C2C2G2 | DB,G,2z2
D2 | C3B,A,2C2 | B,A,G,2z2
C2 | B,3A,G,2F,2 | E,2A,2G,2
G,2 | E3CE2D2 | C4z2

